X:328
T: Maid of Lodi (The)
N: O'Farrell's Pocket Companion v.4 (Sky ed. p.144)
M: 6/8
R: jig
L: 1/8
Q: 240
K: G
D| G2G B2G| F2E z2c| BdG A2 d/F/| G2z z2 :|
B/G/| F2D d2F | AGz z2G| F2D d2F| G2z z2D|
d2d {e}d{c}BG| FE2 Hg2e| dGB AdF| G2z z2D|
d2d e/d/c/B/A/G/| e2e g/f/a/g/f/e/| dGB {d}cAF|
G2z z2 :|
